Reverse_Phone_Loading/img/Location.svg

<?xml version="1.0" encoding="utf-8"?>
<!-- Generator: Adobe Illustrator 19.2.1, SVG Export Plug-In . SVG Version: 6.00 Build 0)  -->
<svg version="1.1" id="Layer_1" xmlns="http://www.w3.org/2000/svg" xmlns:xlink="http://www.w3.org/1999/xlink" x="0px" y="0px"
	 viewBox="0 0 58 80" style="enable-background:new 0 0 58 80;" xml:space="preserve">
<style type="text/css">
	.st0{fill:#6F29B5;}
	.st1{fill:#F4C31A;}
	.st2{fill:#F4A217;}
	.st3{fill:#FFFFFF;}
</style>
<g>
	<path class="st0" d="M55.73,79.5h1.77c-0.79-16-13.25-28.37-28.5-28.37C13.75,51.13,1.29,63.5,0.5,79.5h1.77c0.23-5,1.39-9,3.4-13
		h8.17c-0.88,5-1.22,9-1.28,13h1.83c-0.02-2,0.09-4.44,0.35-6.89c0.23-2.08,0.5-4.11,0.86-6.11h12.9v13h2v-13h12.38
		c0.36,2,0.64,4.03,0.86,6.11c0.27,2.44,0.37,4.89,0.35,6.89h1.83c-0.06-4-0.36-8-1.21-13h7.61C54.33,70.5,55.5,74.5,55.73,79.5z
		 M6.71,65.5c0.98-2,2.11-3.39,3.39-4.72c2.42-2.54,5.23-4.34,8.27-5.73c-1.91,3.27-3.23,6.46-4.12,10.46H6.71z M15.99,65.5
		c1.01-5,2.77-8.1,5.34-11.73c2.24-0.73,4.18-1.54,7.18-1.63V65.5H15.99z M30.5,65.5V52.14c2,0.09,4.88,0.98,7.31,1.84
		c2.48,3.55,3.69,7.51,4.68,11.51H30.5z M44.32,65.5c-0.84-4-2.08-7.11-3.9-10.28c2.74,1.37,5.27,3.44,7.49,5.77
		c1.27,1.34,2.4,2.51,3.38,4.51H44.32z"/>
	<path class="st1" d="M50.95,23.22c0,12.28-22.06,36.5-22.06,36.5S6.83,35.49,6.83,23.22S16.7,0.99,28.89,0.99
		S50.95,10.94,50.95,23.22z"/>
	<circle class="st2" cx="28.91" cy="23.11" r="17.45"/>
	<ellipse class="st3" cx="28.91" cy="23.24" rx="15.02" ry="15.13"/>
	<g>
		<path class="st0" d="M29.46,12.15l2.94,6.96l7.52,0.65c0.52,0.05,0.73,0.7,0.34,1.04l-5.71,4.94l1.71,7.36
			c0.12,0.51-0.44,0.91-0.88,0.64l-6.47-3.9l-6.47,3.9c-0.45,0.27-1-0.13-0.88-0.64l1.71-7.36l-5.71-4.95
			c-0.4-0.34-0.19-0.99,0.34-1.04l7.52-0.65l2.94-6.95C28.57,11.66,29.25,11.66,29.46,12.15z"/>
	</g>
</g>
<rect x="4.9" y="66" class="st0" width="48.38" height="1"/>
</svg>

<?xml version="1.0" encoding="UTF-8"?>
<svg width="58px" height="79px" viewBox="0 0 58 79" version="1.1" xmlns="http://www.w3.org/2000/svg" xmlns:xlink="http://www.w3.org/1999/xlink">
    <!-- Generator: Sketch 44.1 (41455) - http://www.bohemiancoding.com/sketch -->
    <title>Location1</title>
    <desc>Created with Sketch.</desc>
    <defs></defs>
    <g id="Page-1" stroke="none" stroke-width="1" fill="none" fill-rule="evenodd">
        <g id="Location1" transform="translate(0.000000, -1.000000)" fill-rule="nonzero">
            <g id="Group">
                <path d="M55.73,79.5 L57.5,79.5 C56.71,63.5 44.25,51.13 29,51.13 C13.75,51.13 1.29,63.5 0.5,79.5 L2.27,79.5 C2.5,74.5 3.66,70.5 5.67,66.5 L13.84,66.5 C12.96,71.5 12.62,75.5 12.56,79.5 L14.39,79.5 C14.37,77.5 14.48,75.06 14.74,72.61 C14.97,70.53 15.24,68.5 15.6,66.5 L28.5,66.5 L28.5,79.5 L30.5,79.5 L30.5,66.5 L42.88,66.5 C43.24,68.5 43.52,70.53 43.74,72.61 C44.01,75.05 44.11,77.5 44.09,79.5 L45.92,79.5 C45.86,75.5 45.56,71.5 44.71,66.5 L52.32,66.5 C54.33,70.5 55.5,74.5 55.73,79.5 Z M6.71,65.5 C7.69,63.5 8.82,62.11 10.1,60.78 C12.52,58.24 15.33,56.44 18.37,55.05 C16.46,58.32 15.14,61.51 14.25,65.51 L6.71,65.51 L6.71,65.5 Z M15.99,65.5 C17,60.5 18.76,57.4 21.33,53.77 C23.57,53.04 25.51,52.23 28.51,52.14 L28.51,65.5 L15.99,65.5 Z M30.5,65.5 L30.5,52.14 C32.5,52.23 35.38,53.12 37.81,53.98 C40.29,57.53 41.5,61.49 42.49,65.49 L30.5,65.49 L30.5,65.5 Z M44.32,65.5 C43.48,61.5 42.24,58.39 40.42,55.22 C43.16,56.59 45.69,58.66 47.91,60.99 C49.18,62.33 50.31,63.5 51.29,65.5 L44.32,65.5 Z" id="Shape" fill="#6F29B5"></path>
                <path d="M50.95,23.22 C50.95,35.5 28.89,59.72 28.89,59.72 C28.89,59.72 6.83,35.49 6.83,23.22 C6.83,10.95 16.7,0.99 28.89,0.99 C41.08,0.99 50.95,10.94 50.95,23.22 Z" id="Shape" fill="#F4C31A"></path>
                <circle id="Oval" fill="#F4A217" cx="28.91" cy="23.11" r="17.45"></circle>
                <ellipse id="Oval" fill="#FFFFFF" cx="28.91" cy="23.24" rx="15.02" ry="15.13"></ellipse>
                <path d="M29.46,12.15 L32.4,19.11 L39.92,19.76 C40.44,19.81 40.65,20.46 40.26,20.8 L34.55,25.74 L36.26,33.1 C36.38,33.61 35.82,34.01 35.38,33.74 L28.91,29.84 L22.44,33.74 C21.99,34.01 21.44,33.61 21.56,33.1 L23.27,25.74 L17.56,20.79 C17.16,20.45 17.37,19.8 17.9,19.75 L25.42,19.1 L28.36,12.15 C28.57,11.66 29.25,11.66 29.46,12.15 Z" id="Shape" fill="#6F29B5"></path>
            </g>
            <rect id="Rectangle-path" fill="#6F29B5" x="4.9" y="66" width="48.38" height="1"></rect>
        </g>
    </g>
</svg>
